; HEADER_BLOCK_START
; generated by OrcaSlicer 2.3.0 on 2025-08-14 at 15:14:17
; total layer number: 240
;_GP_TOTAL_LAYER_NUMBER_PLACEHOLDER
; filament_density: 1.24
; filament_diameter: 1.75
; max_z_height: 48.00
; HEADER_BLOCK_END

; THUMBNAIL_BLOCK_START

;
; THUMBNAIL_BLOCK_END

; THUMBNAIL_BLOCK_START

;
; THUMBNAIL_BLOCK_END

; external perimeters extrusion width = 0.40mm
; perimeters extrusion width = 0.44mm
; infill extrusion width = 0.44mm
; solid infill extrusion width = 0.48mm
; top infill extrusion width = 0.38mm
; first layer extrusion width = 0.48mm

; EXECUTABLE_BLOCK_START
EXCLUDE_OBJECT_DEFINE NAME=3DBenchy.stl_id_0_copy_0 CENTER=112.5,112.5 POLYGON=[[82.4995,103.316],[82.5025,103.255],[82.5065,103.199],[82.5115,103.146],[82.5135,103.13],[82.5195,103.083],[82.5285,103.025],[82.5455,102.936],[82.5585,102.879],[82.5735,102.822],[82.5805,102.796],[82.5975,102.739],[82.6265,102.655],[82.6405,102.618],[82.6625,102.564],[82.6695,102.547],[82.6855,102.51],[82.7095,102.458],[82.7305,102.416],[82.7635,102.354],[82.7785,102.327],[82.7905,102.306],[82.8395,102.227],[82.8575,102.2],[82.8715,102.179],[82.9055,102.131],[82.9405,102.084],[82.9835,102.031],[83.0085,102.001],[83.0385,101.966],[83.0785,101.923],[83.0925,101.908],[83.1005,101.9],[83.1415,101.859],[83.1615,101.84],[83.2045,101.8],[83.2375,101.771],[83.2825,101.734],[83.2935,101.725],[83.3285,101.697],[83.3865,101.654],[83.4345,101.621],[83.4785,101.592],[83.5445,101.552],[83.5715,101.536],[83.6235,101.508],[83.6485,101.495],[83.6755,101.481],[83.6975,101.47],[83.7535,101.444],[83.8115,101.419],[83.8615,101.399],[83.9165,101.379],[83.9285,101.375],[83.9715,101.361],[83.9845,101.357],[84.0405,101.34],[84.0475,101.338],[84.0845,101.328],[84.0965,101.325],[84.1245,101.318],[84.1405,101.314],[84.2105,101.299],[84.2395,101.294],[84.2685,101.289],[84.2975,101.284],[112.312,97.386],[112.555,97.353],[112.799,97.321],[113.043,97.291],[113.382,97.252],[113.605,97.228],[113.85,97.202],[114.096,97.178],[114.342,97.156],[114.587,97.135],[114.753,97.122],[114.833,97.116],[115.023,97.102],[115.079,97.098],[115.326,97.081],[115.487,97.071],[115.571,97.066],[115.733,97.057],[115.989,97.044],[116.097,97.039],[116.119,97.038],[116.255,97.032],[116.406,97.026],[116.55,97.021],[116.667,97.017],[116.733,97.015],[116.842,97.012],[116.96,97.009],[117.048,97.007],[117.189,97.004],[117.381,97.001],[117.562,96.999],[117.68,96.998],[118.078,96.998],[118.434,97],[118.869,97.008],[118.95,97.01],[119.305,97.02],[119.412,97.024],[119.74,97.037],[120.176,97.058],[120.509,97.078],[120.592,97.083],[120.703,97.09],[120.875,97.102],[120.995,97.111],[121.141,97.122],[121.228,97.129],[121.409,97.144],[121.539,97.155],[122.332,97.28],[122.341,97.282],[122.769,97.388],[122.877,97.415],[123.095,97.47],[123.237,97.507],[123.313,97.527],[123.467,97.568],[123.748,97.645],[123.924,97.695],[124.18,97.77],[124.396,97.834],[124.61,97.9],[124.832,97.97],[125.058,98.043],[125.252,98.107],[125.508,98.194],[125.678,98.253],[125.732,98.272],[125.9,98.332],[126.101,98.405],[126.322,98.487],[126.533,98.567],[126.733,98.645],[126.843,98.688],[126.943,98.728],[126.953,98.732],[127.162,98.816],[127.371,98.902],[127.426,98.925],[127.634,99.013],[127.841,99.103],[128.047,99.193],[128.457,99.379],[128.66,99.474],[128.863,99.57],[129.065,99.668],[129.266,99.767],[129.467,99.867],[129.666,99.969],[129.866,100.072],[130.063,100.177],[130.262,100.283],[130.457,100.39],[130.653,100.499],[130.848,100.61],[131.043,100.721],[131.237,100.834],[131.43,100.949],[131.623,101.065],[131.814,101.183],[132.005,101.301],[132.196,101.422],[132.385,101.543],[132.575,101.667],[132.762,101.791],[132.951,101.917],[133.137,102.044],[133.324,102.173],[133.508,102.303],[133.693,102.434],[133.876,102.567],[134.06,102.701],[134.243,102.837],[134.423,102.974],[134.604,103.112],[134.784,103.252],[134.963,103.393],[135.142,103.536],[135.32,103.68],[135.498,103.825],[135.673,103.972],[136.023,104.27],[136.197,104.421],[136.37,104.574],[136.542,104.728],[136.714,104.884],[136.828,104.989],[136.998,105.145],[137.165,105.303],[137.332,105.462],[137.496,105.622],[137.661,105.783],[137.825,105.945],[137.986,106.109],[138.147,106.273],[138.307,106.439],[138.466,106.606],[138.624,106.774],[138.782,106.943],[138.938,107.114],[139.092,107.285],[139.245,107.458],[139.398,107.632],[139.55,107.806],[139.701,107.983],[139.849,108.16],[139.999,108.338],[140.145,108.517],[140.291,108.698],[140.436,108.88],[140.581,109.063],[140.723,109.247],[140.864,109.432],[141.005,109.618],[141.145,109.805],[141.284,109.993],[141.421,110.183],[141.556,110.374],[141.692,110.565],[141.826,110.758],[141.958,110.952],[142.089,111.147],[142.118,111.192],[142.151,111.245],[142.182,111.298],[142.213,111.352],[142.242,111.407],[142.269,111.462],[142.319,111.576],[142.334,111.617],[142.356,111.675],[142.376,111.733],[142.395,111.792],[142.412,111.851],[142.429,111.913],[142.443,111.97],[142.454,112.03],[142.466,112.093],[142.475,112.152],[142.484,112.213],[142.491,112.274],[142.495,112.336],[142.499,112.405],[142.5,112.466],[142.5,112.527],[142.499,112.588],[142.496,112.649],[142.492,112.709],[142.486,112.77],[142.477,112.831],[142.468,112.891],[142.458,112.949],[142.445,113.012],[142.432,113.069],[142.416,113.132],[142.401,113.186],[142.383,113.245],[142.363,113.303],[142.342,113.361],[142.32,113.418],[142.297,113.474],[142.271,113.53],[142.244,113.586],[142.216,113.64],[142.186,113.694],[142.155,113.748],[142.124,113.801],[142.089,113.853],[141.972,114.027],[141.839,114.221],[141.706,114.414],[141.571,114.606],[141.436,114.797],[141.297,114.987],[141.159,115.176],[141.02,115.364],[140.88,115.55],[140.737,115.736],[140.595,115.92],[140.451,116.104],[140.159,116.468],[140.01,116.648],[139.861,116.828],[139.71,117.006],[139.56,117.183],[139.407,117.36],[139.252,117.535],[139.097,117.709],[138.982,117.837],[138.826,118.009],[138.667,118.18],[138.508,118.35],[138.348,118.518],[138.188,118.686],[138.026,118.852],[137.7,119.18],[137.534,119.341],[137.369,119.502],[137.203,119.661],[137.035,119.819],[136.868,119.975],[136.699,120.13],[136.528,120.284],[136.357,120.437],[136.186,120.589],[136.012,120.739],[135.838,120.888],[135.664,121.036],[135.487,121.182],[135.311,121.327],[135.132,121.471],[134.954,121.614],[134.775,121.756],[134.593,121.896],[134.411,122.035],[134.228,122.173],[134.044,122.31],[133.859,122.445],[133.673,122.58],[133.299,122.844],[133.111,122.974],[132.921,123.103],[132.73,123.231],[132.539,123.357],[132.346,123.482],[132.153,123.606],[131.958,123.728],[131.763,123.849],[131.567,123.969],[131.369,124.087],[131.172,124.204],[130.972,124.319],[130.772,124.434],[130.572,124.546],[130.37,124.658],[130.095,124.807],[129.895,124.912],[129.696,125.016],[129.496,125.118],[129.296,125.219],[129.095,125.318],[128.892,125.416],[128.69,125.512],[128.487,125.607],[128.283,125.7],[128.079,125.792],[127.874,125.883],[127.669,125.972],[127.463,126.059],[127.256,126.145],[127.166,126.182],[127.049,126.23],[126.841,126.313],[126.622,126.398],[126.503,126.444],[126.204,126.557],[125.993,126.634],[125.793,126.706],[125.571,126.784],[125.384,126.848],[125.369,126.853],[125.156,126.924],[124.943,126.994],[124.706,127.07],[124.505,127.132],[124.479,127.14],[124.251,127.209],[124.023,127.276],[123.795,127.341],[123.642,127.384],[123.566,127.405],[123.424,127.443],[123.206,127.501],[123.106,127.527],[122.988,127.557],[122.769,127.612],[122.343,127.718],[121.816,127.819],[121.806,127.82],[121.55,127.844],[121.503,127.848],[121.31,127.864],[121.225,127.871],[121.061,127.884],[120.981,127.89],[120.634,127.914],[120.188,127.941],[120.149,127.943],[119.764,127.962],[119.626,127.968],[119.278,127.981],[119.064,127.987],[118.843,127.993],[118.407,128],[118.021,128.002],[117.677,128.002],[117.377,127.999],[117.321,127.998],[117.099,127.994],[116.956,127.991],[116.838,127.988],[116.666,127.983],[116.576,127.98],[116.43,127.975],[116.252,127.968],[116.228,127.967],[116.07,127.96],[115.962,127.955],[115.832,127.948],[115.633,127.937],[115.389,127.923],[115.144,127.907],[115.129,127.906],[114.842,127.885],[114.596,127.866],[114.349,127.845],[114.167,127.828],[114.103,127.822],[113.923,127.805],[113.679,127.78],[113.611,127.773],[113.435,127.754],[113.119,127.718],[112.873,127.688],[112.704,127.666],[112.382,127.624],[84.3275,123.72],[84.2925,123.715],[84.2425,123.707],[84.1855,123.696],[84.1535,123.689],[84.0965,123.675],[84.0845,123.672],[84.0475,123.662],[84.0365,123.659],[83.9805,123.642],[83.9285,123.625],[83.9165,123.621],[83.8615,123.601],[83.8115,123.581],[83.7535,123.556],[83.6975,123.53],[83.6555,123.509],[83.6045,123.482],[83.5865,123.472],[83.5445,123.448],[83.4925,123.417],[83.4785,123.408],[83.4435,123.385],[83.4345,123.379],[83.3865,123.346],[83.3475,123.317],[83.3395,123.311],[83.2935,123.275],[83.2555,123.244],[83.2485,123.238],[83.2045,123.2],[83.1615,123.16],[83.1405,123.14],[83.0925,123.092],[83.0575,123.055],[83.0385,123.034],[83.0185,123.011],[82.9805,122.966],[82.9445,122.92],[82.9305,122.902],[82.9095,122.874],[82.9065,122.87],[82.8725,122.822],[82.8575,122.8],[82.8425,122.778],[82.8085,122.724],[82.7785,122.673],[82.7505,122.622],[82.7305,122.584],[82.7185,122.56],[82.6955,122.512],[82.6695,122.454],[82.6485,122.403],[82.6275,122.349],[82.6085,122.293],[82.6075,122.29],[82.5905,122.238],[82.5745,122.182],[82.5595,122.125],[82.5455,122.064],[82.5345,122.007],[82.5255,121.954],[82.5245,121.948],[82.5165,121.896],[82.5115,121.853],[82.5085,121.825],[82.5025,121.745],[82.5005,121.708],[82.4995,121.679],[82.4995,103.316]]
M73 P0 R32
;TYPE:Custom
START_PRINT
G90
G21
M83 ; use relative distances for extrusion
; Filament gcode
M106 S0
;LAYER_CHANGE
;Z:0.2
;HEIGHT:0.2
;BEFORE_LAYER_CHANGE
;0.2
G92 E0

G1 E-.8 F1800
;AFTER_LAYER_CHANGE
;0.2
;_SET_FAN_SPEED_CHANGING_LAYER
SET_VELOCITY_LIMIT ACCEL=500 ACCEL_TO_DECEL=250
; printing object 3DBenchy.stl id:0 copy 0
EXCLUDE_OBJECT_START NAME=3DBenchy.stl_id_0_copy_0
G1 Z.6 F21000
G1 X109.068 Y114.587
G1 Z.6
G1 Z.2
G1 E.8 F1800
;TYPE:Brim
;WIDTH:0.48
G1 F3000
G1 X109.186 Y114.534 E.00461
G1 X109.311 Y114.527 E.00444
G1 X109.429 Y114.562 E.00438
G1 X109.534 Y114.65 E.0049
G1 X109.595 Y114.766 E.00466
G1 X109.609 Y114.908 E.00509
G1 X109.557 Y115.046 E.00523
G1 X109.469 Y115.141 E.00463
G1 X109.345 Y115.198 E.00484
G1 X109.215 Y115.201 E.00465
G1 X109.097 Y115.16 E.00443
G1 X108.988 Y115.063 E.00521
G1 X108.932 Y114.927 E.00522
G1 X108.932 Y114.806 E.00432
G1 X108.976 Y114.687 E.00453
G1 X109.041 Y114.616 E.00342
G1 E-.56 F1800
;WIPE_START
G1 F3000
G1 X109.186 Y114.534 E-.04005
G1 X109.311 Y114.527 E-.0299
G1 X109.429 Y114.562 E-.02949
G1 X109.534 Y114.65 E-.03298
G1 X109.595 Y114.766 E-.03141
G1 X109.609 Y114.908 E-.03432
G1 X109.557 Y115.046 E-.03525
G1 X109.538 Y115.066 E-.0066
;WIPE_END
G1 Z.6 F21000
G1 X107.254 Y113.683 Z.6
G1 Z.2
G1 E.8 F1800
G1 F3000
G1 X107.042 Y114.068 E.01565
G1 X106.89 Y114.248 E.00839
G1 X106.657 Y114.444 E.01084
G1 X106.476 Y114.547 E.00742
G1 X106.357 Y114.595 E.00456
G1 X106.009 Y114.677 E.01274
G1 X105.793 Y114.705 E.00776
G1 X105.335 Y114.728 E.01632
G1 X104.5 Y114.721 E.02973
G1 X104.269 Y114.742 E.00827
G1 X104.285 Y114.173 E.02028
G1 X104.29 Y110.535 E.12958
G1 X104.265 Y110.19 E.0123
G1 X104.621 Y110.203 E.01268
G1 X105.437 Y110.205 E.02909
G1 X105.893 Y110.236 E.01627
G1 X106.318 Y110.313 E.01537
G1 X106.573 Y110.405 E.00967
G1 X106.771 Y110.531 E.00835
G1 X106.999 Y110.761 E.01156
G1 X107.128 Y110.951 E.00816
G1 X107.288 Y111.289 E.01332
G1 X107.415 Y111.786 E.01829
G1 X107.458 Y112.183 E.01421
G1 X107.465 Y112.475 E.01039
G1 X107.424 Y113.035 E.01999
G1 X107.32 Y113.498 E.01693
G1 X107.267 Y113.646 E.00557
G1 X107.24 Y113.633 F21000
G1 F3000
G1 X107.119 Y113.902 E.01048
G1 X106.869 Y114.237 E.0149
G1 X106.624 Y114.435 E.01122
G1 X106.28 Y114.592 E.01346
G1 X106.007 Y114.652 E.00995
G1 X105.723 Y114.687 E.01019
G1 X104.826 Y114.703 E.03196
G1 X104.652 Y114.641 E.00658
G1 X104.532 Y114.559 E.00516
G1 X104.41 Y114.418 E.00667
G1 X104.33 Y114.248 E.00667
G1 X104.294 Y113.977 E.00975
G1 X104.312 Y113.689 E.01026
G1 X104.305 Y110.83 E.10184
G1 X104.319 Y110.696 E.00479
G1 X104.393 Y110.504 E.00734
G1 X104.461 Y110.417 E.00393
G1 X104.581 Y110.326 E.00534
G1 X104.664 Y110.287 E.00326
G1 X104.871 Y110.239 E.00758
G1 X105.13 Y110.226 E.00924
G1 X105.675 Y110.243 E.01943
G1 X106 Y110.276 E.01162
G1 X106.359 Y110.35 E.01306
G1 X106.622 Y110.463 E.0102
G1 X106.858 Y110.642 E.01054
G1 X107.046 Y110.864 E.01037
G1 X107.214 Y111.176 E.01263
G1 X107.328 Y111.505 E.01238
G1 X107.399 Y111.854 E.01268
G1 X107.429 Y112.137 E.01014
G1 X107.436 Y112.604 E.01666
G1 X107.392 Y113.072 E.01674
G1 X107.27 Y113.566 E.01813
G1 X107.256 Y113.597 E.00119
G1 E-.56 F1800
;WIPE_START
G1 F3000
G1 X107.119 Y113.902 E-.0802
G1 X106.869 Y114.237 E-.10039
G1 X106.676 Y114.392 E-.0594
;WIPE_END
G1 Z.6 F21000
G1 X86.874 Y112.658 Z.6
G1 Z.2
G1 E.8 F1800
;TYPE:Outer wall
;WIDTH:0.500502
G1 F3000
G1 X86.88 Y111.893 E.02854
;WIDTH:0.534665
G1 X86.897 Y111.183 E.02847
G1 X86.884 Y110.911 E.01089
;WIDTH:0.507332
G1 X86.87 Y110.64 E.01028
;WIDTH:0.479999
G1 X86.871 Y107.744 E.10313
G1 X86.923 Y107.206 E.01926
G1 X87.093 Y106.793 E.01588
G1 X87.344 Y106.481 E.01427
G1 X87.507 Y106.367 E.00708
G1 X87.831 Y106.193 E.01311
G1 X88.303 Y106.088 E.01723
G1 X111.675 Y104.668 E.83395
G1 X112.789 Y104.643 E.03971
G1 X113.623 Y104.679 E.02971
G1 X114.433 Y104.762 E.02899
G1 X115.249 Y104.891 E.02943
G1 X116.331 Y105.138 E.03954
G1 X117.127 Y105.374 E.02955
G1 X118.18 Y105.765 E.04001
G1 X119.026 Y106.149 E.03311
G1 X119.933 Y106.636 E.03666
G1 X120.65 Y107.083 E.03011
G1 X121.56 Y107.737 E.0399
G1 X122.353 Y108.403 E.0369
G1 X123.02 Y109.043 E.0329
G1 X123.628 Y109.704 E.03199
G1 X124.246 Y110.469 E.03504
G1 X124.778 Y111.223 E.03284
G1 X125.179 Y111.883 E.02753
G1 X125.341 Y112.231 E.01366
G1 X125.355 Y112.708 E.01699
G1 X125.187 Y113.106 E.01541
G1 X124.819 Y113.705 E.02504
G1 X124.509 Y114.17 E.01989
G1 X124.131 Y114.681 E.02265
G1 X123.585 Y115.369 E.03128
;WIDTH:0.441008
G1 X123.459 Y115.54 E.00688
;WIDTH:0.402017
G1 X123.333 Y115.71 E.0062
;WIDTH:0.400835
G1 X123.169 Y115.853 E.00634
;WIDTH:0.438645
G1 X123.005 Y115.996 E.00701
;WIDTH:0.476454
G1 X122.841 Y116.138 E.00768
;WIDTH:0.479999
G1 X122.376 Y116.577 E.02276
G1 X121.813 Y117.061 E.02645
G1 X121.249 Y117.498 E.02542
G1 X120.739 Y117.858 E.02226
G1 X120.029 Y118.307 E.0299
G1 X119.469 Y118.623 E.02289
G1 X118.745 Y118.986 E.02885
G1 X117.858 Y119.365 E.03435
G1 X116.999 Y119.668 E.03247
G1 X116.006 Y119.946 E.03671
G1 X115.054 Y120.144 E.03466
G1 X114.188 Y120.267 E.03113
G1 X113.284 Y120.341 E.03232
G1 X112.326 Y120.357 E.03413
G1 X111.66 Y120.331 E.02372
G1 X88.434 Y118.92 E.82878
G1 X87.92 Y118.845 E.01849
G1 X87.581 Y118.697 E.01318
G1 X87.273 Y118.448 E.01411
G1 X87.085 Y118.194 E.01124
G1 X86.924 Y117.796 E.01529
G1 X86.868 Y117.364 E.01552
G1 X86.869 Y114.054 E.1179
;WIDTH:0.506328
G1 X86.882 Y113.781 E.01033
;WIDTH:0.532656
G1 X86.896 Y113.508 E.01092
G1 X86.875 Y112.698 E.03231
G1 E-.56 F1800
;WIPE_START
G1 F3000
G1 X86.88 Y111.893 E-.19329
G1 X86.885 Y111.698 E-.04671
;WIPE_END
G1 Z.6 F21000
G1 X121.462 Y114.38 Z.6
G1 Z.2
G1 E.8 F1800
;WIDTH:0.479999
G1 F3000
G1 X122.224 Y114.344 E.02719
G1 X122.72 Y114.404 E.01778
G1 X123.02 Y114.542 E.01179
G1 X123.227 Y114.815 E.01219
G1 X123.271 Y115.173 E.01286
;WIDTH:0.477337
G1 X123.216 Y115.277 E.00415
;WIDTH:0.439233
G1 X123.162 Y115.381 E.00379
;WIDTH:0.401129
G1 X123.107 Y115.484 E.00343
;WIDTH:0.410391
G1 X122.873 Y115.703 E.0096
;WIDTH:0.445195
G1 X122.661 Y115.761 E.0072
;WIDTH:0.479999
G1 X122.449 Y115.819 E.00782
G1 X120.731 Y115.814 E.06119
G1 X120.171 Y115.842 E.01999
G1 X119.834 Y115.762 E.01232
G1 X119.615 Y115.561 E.01058
G1 X119.485 Y115.26 E.01167
G1 X119.494 Y114.752 E.01808
G1 X119.762 Y114.217 E.02132
G1 X121.23 Y112.188 E.08921
G1 X120.858 Y112.215 E.0133
G1 X120.104 Y112.173 E.02688
G1 X119.783 Y112.051 E.01225
;WIDTH:0.481286
G1 X119.562 Y111.802 E.01189
;WIDTH:0.483847
G1 X119.501 Y111.382 E.01524
